X:151
T:Sonata Op.5 No.3 - Corrente
C:Corelli, A.
M:3/4
L:1/8
Q:1/4=92
K:C
|:G|c3 de|f2 ed c2|d4 ef|g4 e2|
c3 cd|e2 dc B2|c4 BG|c4:|

